images/icones/icone-youtube.svg

<svg width="36" height="36" fill="none" xmlns="http://www.w3.org/2000/svg"><path d="M32.373 9.279a3.759 3.759 0 0 0-2.652-2.652C27.381 6 18 6 18 6s-9.381 0-11.721.627a3.759 3.759 0 0 0-2.652 2.652C3 11.619 3 18 3 18s0 6.381.627 8.721a3.759 3.759 0 0 0 2.652 2.652C8.619 30 18 30 18 30s9.381 0 11.721-.627a3.756 3.756 0 0 0 2.652-2.652C33 24.381 33 18 33 18s0-6.381-.627-8.721ZM15 23.196V12.804L24 18l-9 5.196Z" fill="#656565"/></svg>

<svg width="36" height="36" viewBox="0 0 36 36" fill="none" xmlns="http://www.w3.org/2000/svg">
<path d="M32.373 9.279C32.028 7.989 31.011 6.972 29.721 6.627C27.381 6 18 6 18 6C18 6 8.619 6 6.279 6.627C4.989 6.972 3.972 7.989 3.627 9.279C3 11.619 3 18 3 18C3 18 3 24.381 3.627 26.721C3.972 28.011 4.989 29.028 6.279 29.373C8.619 30 18 30 18 30C18 30 27.381 30 29.721 29.373C31.0125 29.028 32.028 28.011 32.373 26.721C33 24.381 33 18 33 18C33 18 33 11.619 32.373 9.279ZM15 23.196V12.804L24 18L15 23.196Z" fill="#656565"/>
</svg>
